web/ui/src/assets/svgs/logo/gitee.svg

<svg height="56" viewBox="0 0 56 56" width="56" xmlns="http://www.w3.org/2000/svg"><g fill="none"><path d="m3.111111 3.111111h50.199623v50.199623h-50.199623z" fill="#000" opacity="0"/><path d="m28.2109228 53.3107345c-13.8048964 0-25.09981169-11.2949153-25.09981169-25.0998117s11.29491529-25.09981169 25.09981169-25.09981169 25.0998117 11.29491529 25.0998117 25.09981169-11.2949153 25.0998117-25.0998117 25.0998117zm12.7067796-27.9235405h-14.2755178c-.6274953 0-1.2549906.6274953-1.2549906 1.2549906v3.1374764c0 .6274953.6274953 1.2549906 1.2549906 1.2549906h8.6280602c.6274953 0 1.2549906.6274953 1.2549906 1.2549906v.6274953c0 2.0393597-1.725612 3.7649717-3.7649717 3.7649717h-11.7655368c-.6274953 0-1.2549906-.6274953-1.2549906-1.2549906v-11.9224105c0-2.0393597 1.7256121-3.7649718 3.7649718-3.7649718h17.4129943c.6274953 0 1.2549906-.6274952 1.2549906-1.2549905v-3.1374765c0-.6274953-.6274953-1.2549906-1.2549906-1.2549906h-17.4129943c-5.1768362 0-9.2555556 4.2355932-9.2555556 9.2555556v17.4129943c0 .6274953.6274953 1.2549906 1.2549906 1.2549906h18.3542373c4.5493409 0 8.3143126-3.7649717 8.3143126-8.3143126v-7.059322c0-.6274953-.6274953-1.2549906-1.2549906-1.2549906z" fill="#c71d23"/></g></svg>

<?xml version="1.0" encoding="UTF-8"?>
<svg width="56px" height="56px" viewBox="0 0 56 56" version="1.1" xmlns="http://www.w3.org/2000/svg" xmlns:xlink="http://www.w3.org/1999/xlink">
    <title>编组 4</title>
    <g id="页面-1" stroke="none" stroke-width="1" fill="none" fill-rule="evenodd">
        <g id="建木自动化-登录页(GitLink)" transform="translate(-464.000000, -275.000000)" fill-rule="nonzero">
            <g id="编组-4备份" transform="translate(464.000000, 275.000000)">
                <rect id="矩形" fill="#000000" opacity="0" x="3.11111111" y="3.11111111" width="50.1996234" height="50.1996234"></rect>
                <path d="M28.2109228,53.3107345 C14.4060264,53.3107345 3.11111111,42.0158192 3.11111111,28.2109228 C3.11111111,14.4060264 14.4060264,3.11111111 28.2109228,3.11111111 C42.0158192,3.11111111 53.3107345,14.4060264 53.3107345,28.2109228 C53.3107345,42.0158192 42.0158192,53.3107345 28.2109228,53.3107345 Z M40.9177024,25.387194 L26.6421846,25.387194 C26.0146893,25.387194 25.387194,26.0146893 25.387194,26.6421846 L25.387194,29.779661 C25.387194,30.4071563 26.0146893,31.0346516 26.6421846,31.0346516 L35.2702448,31.0346516 C35.8977401,31.0346516 36.5252354,31.6621469 36.5252354,32.2896422 L36.5252354,32.9171375 C36.5252354,34.9564972 34.7996234,36.6821092 32.7602637,36.6821092 L20.9947269,36.6821092 C20.3672316,36.6821092 19.7397363,36.0546139 19.7397363,35.4271186 L19.7397363,23.5047081 C19.7397363,21.4653484 21.4653484,19.7397363 23.5047081,19.7397363 L40.9177024,19.7397363 C41.5451977,19.7397363 42.172693,19.1122411 42.172693,18.4847458 L42.172693,15.3472693 C42.172693,14.719774 41.5451977,14.0922787 40.9177024,14.0922787 L23.5047081,14.0922787 C18.3278719,14.0922787 14.2491525,18.3278719 14.2491525,23.3478343 L14.2491525,40.7608286 C14.2491525,41.3883239 14.8766478,42.0158192 15.5041431,42.0158192 L33.8583804,42.0158192 C38.4077213,42.0158192 42.172693,38.2508475 42.172693,33.7015066 L42.172693,26.6421846 C42.172693,26.0146893 41.5451977,25.387194 40.9177024,25.387194 Z" id="形状" fill="#C71D23"></path>
            </g>
        </g>
    </g>
</svg>
